libs/icons/src/svg/circle-2.svg

<svg width="16" height="16" viewBox="0 0 16 16" fill="none" xmlns="http://www.w3.org/2000/svg">
<g clip-path="url(#clip0_4_386)">
<path fill-rule="evenodd" clip-rule="evenodd" d="M16 8C16 12.4183 12.4183 16 8 16C3.58172 16 0 12.4183 0 8C0 3.58172 3.58172 0 8 0C12.4183 0 16 3.58172 16 8ZM14.6666 8.00002C14.6666 11.6819 11.6818 14.6667 7.99994 14.6667C4.31804 14.6667 1.33327 11.6819 1.33327 8.00002C1.33327 4.31812 4.31804 1.33335 7.99994 1.33335C11.6818 1.33335 14.6666 4.31812 14.6666 8.00002ZM10.6847 11.4547H5.64303V10.4924L8.19616 7.9895C8.92153 7.25336 9.29498 6.81527 9.29498 6.20123C9.29498 5.50818 8.7743 5.08086 8.07407 5.08086C7.34153 5.08086 6.86753 5.55127 6.86753 6.30177H5.59994C5.59994 4.90491 6.63412 4 8.09203 4C9.57148 4 10.5733 4.90132 10.5733 6.133C10.5733 6.9625 10.1783 7.63041 8.74916 9.00214L7.48157 10.2913V10.3415H10.6847V11.4547Z" fill="#202327"/>
</g>
<defs>
<clipPath id="clip0_4_386">
<rect width="16" height="16" fill="white"/>
</clipPath>
</defs>
</svg>

<svg xmlns="http://www.w3.org/2000/svg" viewBox="0 0 16 16" class="sageicon"><path fill-rule="evenodd" d="M16 8A8 8 0 1 1 0 8a8 8 0 0 1 16 0Zm-1.333 0A6.667 6.667 0 1 1 1.333 8a6.667 6.667 0 0 1 13.334 0Zm-3.982 3.455H5.643v-.963L8.196 7.99c.726-.736 1.099-1.174 1.099-1.788 0-.693-.52-1.12-1.22-1.12-.733 0-1.207.47-1.207 1.22H5.6C5.6 4.906 6.634 4 8.092 4c1.48 0 2.481.901 2.481 2.133 0 .83-.395 1.497-1.824 2.87L7.482 10.29v.05h3.203v1.114Z"/></svg>
